assets/shopping-grey/ShoppingGrey10.svg

<svg xmlns="http://www.w3.org/2000/svg" data-name="Layer 3" viewBox="0 0 128 128"><path d="M99.393 74.185a39.767 39.767 0 10-22.024 25.177 16.821 16.821 0 1022.024-25.177zM61.235 99.6a36.674 36.674 0 1135.311-27.04 16.809 16.809 0 00-21.157 24.2 36.263 36.263 0 01-14.154 2.84zm28.47 1.992a13.658 13.658 0 1113.658-13.658A13.673 13.673 0 0189.706 101.6z"/><path d="M62.827 56.59V41.523a1.591 1.591 0 00-3.182 0v15.066a6.585 6.585 0 00-3.8 10.247l-6.128 7.131a1.591 1.591 0 102.413 2.073l6.136-7.14a6.548 6.548 0 002.969.734 6.617 6.617 0 001.592-13.044zm-1.591 9.861A3.447 3.447 0 1164.682 63a3.451 3.451 0 01-3.447 3.451zM34.714 61.413h-6.365a1.591 1.591 0 100 3.183h6.365a1.591 1.591 0 000-3.183zM61.235 38.075a1.591 1.591 0 001.591-1.591v-6.365a1.591 1.591 0 10-3.182 0v6.365a1.591 1.591 0 001.591 1.591zM87.756 64.6h6.365a1.591 1.591 0 100-3.183h-6.365a1.591 1.591 0 000 3.183zM61.235 87.933a1.591 1.591 0 00-1.591 1.591v6.365a1.591 1.591 0 103.182 0v-6.365a1.591 1.591 0 00-1.591-1.591zM84.094 91.821l1.145-.954c1.793-1.6 3.3-3.263 3.3-5.344 0-2.252-1.545-3.893-4.351-3.893a6.873 6.873 0 00-4.065 1.279l.82 2.081a4.493 4.493 0 012.657-1.032c1.433 0 2.044.8 2.044 1.813-.039 1.45-1.355 2.844-4.065 5.268l-1.6 1.45v1.756h8.8V91.86h-4.685zM98.452 89.111V81.84H94.9l-4.692 7.56v1.888h5.5v2.959h2.747v-2.961h1.485v-2.175zM95.7 86.363v2.747h-2.782v-.037l1.66-2.71c.42-.783.744-1.507 1.145-2.309h.077c-.059.802-.1 1.565-.1 2.309z"/></svg>

<svg id="Layer_3" data-name="Layer 3" xmlns="http://www.w3.org/2000/svg" viewBox="0 0 128 128"><title>Artboard 106</title><path d="M99.393,74.185A39.767,39.767,0,1,0,77.369,99.362,16.821,16.821,0,1,0,99.393,74.185ZM61.235,99.6a36.674,36.674,0,1,1,35.311-27.04,16.809,16.809,0,0,0-21.157,24.2A36.263,36.263,0,0,1,61.235,99.6Zm28.47,1.992a13.658,13.658,0,1,1,13.658-13.658A13.673,13.673,0,0,1,89.706,101.6Z"/><path d="M62.827,56.59V41.523a1.591,1.591,0,0,0-3.182,0V56.589a6.585,6.585,0,0,0-3.8,10.247l-6.128,7.131A1.591,1.591,0,1,0,52.13,76.04L58.266,68.9a6.548,6.548,0,0,0,2.969.734A6.617,6.617,0,0,0,62.827,56.59Zm-1.591,9.861A3.447,3.447,0,1,1,64.682,63,3.451,3.451,0,0,1,61.235,66.451Z"/><path d="M34.714,61.413H28.349a1.591,1.591,0,1,0,0,3.183h6.365a1.591,1.591,0,0,0,0-3.183Z"/><path d="M61.235,38.075a1.591,1.591,0,0,0,1.591-1.591V30.119a1.591,1.591,0,1,0-3.182,0v6.365A1.591,1.591,0,0,0,61.235,38.075Z"/><path d="M87.756,64.6h6.365a1.591,1.591,0,1,0,0-3.183H87.756a1.591,1.591,0,0,0,0,3.183Z"/><path d="M61.235,87.933a1.591,1.591,0,0,0-1.591,1.591v6.365a1.591,1.591,0,1,0,3.182,0V89.524A1.591,1.591,0,0,0,61.235,87.933Z"/><path d="M84.094,91.821l1.145-.954c1.793-1.6,3.3-3.263,3.3-5.344,0-2.252-1.545-3.893-4.351-3.893a6.873,6.873,0,0,0-4.065,1.279l.82,2.081A4.493,4.493,0,0,1,83.6,83.958c1.433,0,2.044.8,2.044,1.813-.039,1.45-1.355,2.844-4.065,5.268l-1.6,1.45v1.756h8.8V91.86H84.094Z"/><path d="M98.452,89.111V81.84H94.9L90.208,89.4v1.888h5.5v2.959h2.747V91.286H99.94V89.111ZM95.7,86.363v2.747H92.918v-.037l1.66-2.71c.42-.783.744-1.507,1.145-2.309H95.8C95.741,84.856,95.7,85.619,95.7,86.363Z"/></svg>
